X:1
T:The Gotcha Reel - (a.k.a rosemary's revenge)  "CYMRU"
M:C
L:1/8
Q:80
C:Bob Worrall
S:
K:HP
|: e2 | \
{g}A2{gAGAG}A2{g}Bc{gde}dB | \
{g}e2{GdG}ge{gde}dBgB |
{g}A2{gAGAG}A2{g}Bc{gde}dB | \
{a}ge{gde}dB{gAGAG}A2:| [ | \
{g}AB |
{gAGAG}A2a2{g}ag{a}ed | \
{a}ge{A}ed{a}ge{gde}dB | \
{gAGAG}A2a2{g}ag{a}ed |
{a}ge{gde}dB{gAGAG}A2{g}AB | | \
{gAGAG}A2a2{g}ag{a}ed | \
{a}ge{gde}dB{g}GA{g}Be |
{g}A2{gAGAG}A2{g}Bc{gde}dB | \
{a}ge{gde}dB{gAGAG}A2|]
